packages/ffe-icons/icons/filled/md/align_justify_flex_end.svg

<svg xmlns="http://www.w3.org/2000/svg" height="24" viewBox="0 -960 960 960" width="24"><path d="M829.986-100.001q-12.756 0-21.371-8.625Q800-117.251 800-130.001v-699.998q0-12.75 8.629-21.375 8.628-8.625 21.384-8.625 12.755 0 21.37 8.625 8.616 8.625 8.616 21.375v699.998q0 12.75-8.629 21.375t-21.384 8.625Zm-223.832-190q-15.365 0-25.759-10.394t-10.394-25.759v-307.692q0-15.365 10.394-25.759t25.759-10.394h27.692q15.365 0 25.759 10.394t10.394 25.759v307.692q0 15.365-10.394 25.759t-25.759 10.394h-27.692Zm-240 0q-15.365 0-25.759-10.394t-10.394-25.759v-307.692q0-15.365 10.394-25.759t25.759-10.394h27.692q15.365 0 25.759 10.394t10.394 25.759v307.692q0 15.365-10.394 25.759t-25.759 10.394h-27.692Z"/></svg>

<svg xmlns="http://www.w3.org/2000/svg" height="24" viewBox="0 -960 960 960" width="24"><path d="M829.99-100q-12.76 0-21.37-8.63Q800-117.25 800-130v-700q0-12.75 8.63-21.37 8.63-8.63 21.38-8.63 12.76 0 21.37 8.63Q860-842.75 860-830v700q0 12.75-8.63 21.37-8.63 8.63-21.38 8.63ZM606.15-290q-15.36 0-25.76-10.39Q570-310.79 570-326.15v-307.7q0-15.36 10.39-25.76Q590.79-670 606.15-670h27.7q15.36 0 25.76 10.39Q670-649.21 670-633.85v307.7q0 15.36-10.39 25.76Q649.21-290 633.85-290h-27.7Zm-240 0q-15.36 0-25.76-10.39Q330-310.79 330-326.15v-307.7q0-15.36 10.39-25.76Q350.79-670 366.15-670h27.7q15.36 0 25.76 10.39Q430-649.21 430-633.85v307.7q0 15.36-10.39 25.76Q409.21-290 393.85-290h-27.7Z"/></svg>
